src/next/cmd/32/ar/bulletsandnumberingdialog.svg

<svg height="32" viewBox="0 0 8.4666665 8.466667" width="32" xmlns="http://www.w3.org/2000/svg" xmlns:xlink="http://www.w3.org/1999/xlink"><linearGradient id="a" gradientUnits="userSpaceOnUse" x1="78.611023" x2="120.34367" y1="1011.2147" y2="1033.9094"><stop offset="0" stop-color="#fff"/><stop offset="1" stop-color="#ccc"/></linearGradient><linearGradient id="b" gradientUnits="userSpaceOnUse" x1="100.83469" x2="116.42816" y1="35.992722" y2="78.92421"><stop offset="0" stop-color="#fff" stop-opacity=".683453"/><stop offset="1" stop-color="#fff" stop-opacity="0"/></linearGradient><linearGradient id="c" gradientTransform="matrix(.5963646 0 0 .63697579 63.973311 385.80879)" gradientUnits="userSpaceOnUse" x1="65.456863" x2="65.985519" y1="947.38373" y2="1011.6694"><stop offset="0" stop-color="#363636"/><stop offset="1" stop-color="#cdcdcd"/></linearGradient><linearGradient id="d" gradientUnits="userSpaceOnUse" x1="88.38102" x2="130.48599" y1="1008.9966" y2="1015.6953"><stop offset="0" stop-color="#5e5e5e"/><stop offset="1" stop-color="#5e5e5e" stop-opacity="0"/></linearGradient><filter id="e" color-interpolation-filters="sRGB" height="1.12903" width="1.240695" x="-.120348" y="-.064515"><feGaussianBlur stdDeviation="1.8475301"/></filter><linearGradient id="f" gradientUnits="userSpaceOnUse" x1="102.76828" x2="102.87263" y1="996.59485" y2="1014.126"><stop offset="0" stop-color="#979797"/><stop offset=".148461" stop-color="#f6f6f6"/><stop offset=".28399727" stop-color="#e2e2e2"/><stop offset=".59572202" stop-color="#dedede"/><stop offset=".73809379" stop-color="#f6f6f6"/><stop offset="1" stop-color="#6b6b6b"/></linearGradient><linearGradient id="g" gradientUnits="userSpaceOnUse" x1="102.6542" x2="102.70658" y1="-1035.715" y2="-1014.9489"><stop offset="0" stop-color="#777"/><stop offset=".07421063" stop-color="#a8a8a8"/><stop offset=".22864534" stop-color="#cdcdcd"/><stop offset=".34561315" stop-color="#f7f7f7"/><stop offset="1" stop-color="#fff"/></linearGradient><linearGradient id="h" gradientUnits="userSpaceOnUse" x1="1.72204" x2="1.72204" xlink:href="#i" y1="290.70898" y2="288.50354"/><linearGradient id="i"><stop offset="0" stop-color="#06f"/><stop offset="1" stop-color="#80b3ff"/></linearGradient><linearGradient id="j" gradientTransform="matrix(.95054585 0 0 .95055165 -501.98201 -345.67176)" gradientUnits="userSpaceOnUse" x1="533.97046" x2="533.97046" xlink:href="#i" y1="62.640213" y2="69.536903"/><g transform="matrix(-1 0 0 1 8.466667 -.000001)"><g fill="#404040" fill-opacity=".839216"><g transform="matrix(-.225 0 0 .25 .529167 -66.04791)"><path d="m-31.749998 273.71664h21.166666v1.05835h-21.166666z"/><path d="m-31.749998 269.48331h21.166666v1.05835h-21.166666z"/><path d="m-26.458332 277.94998h15.875v1.05835h-15.875z"/></g><g transform="matrix(-.225 0 0 .25 .529167 -62.343747)"><path d="m-31.749998 273.71664h21.166666v1.05835h-21.166666z"/><path d="m-31.749998 269.48331h21.166666v1.05835h-21.166666z"/><path d="m-26.458332 277.94998h15.875v1.05835h-15.875z"/></g></g><g transform="matrix(-.25 0 0 .25 2.567095 -65.3503)"><ellipse cx="5.134189" cy="-284.36118" fill="none" rx="1.425819" ry="1.425828" stroke="url(#j)" stroke-linecap="round" stroke-linejoin="round" stroke-width="2.851658" transform="scale(1 -1)"/><ellipse cx="5.134231" cy="284.36118" fill="#bfd9ff" rx="1.425809" ry="1.425831"/></g><g font-family="Bitstream Vera Sans" font-size="3.175" transform="matrix(-1.02 0 0 1.02 2.911062 -293.913)"><text stroke="url(#h)" stroke-linejoin="round" stroke-width=".529167" x=".916063" y="290.89249"><tspan style="font-weight:bold;font-size:1.905007;font-family:Liberation Sans;stroke-width:.529167;stroke-linejoin:round;stroke:url(#h)" x=".916063" y="290.89249">1</tspan></text><text fill="#bfd9ff" stroke-width=".264583" x=".916079" y="290.89252"><tspan fill="#bfd9ff" font-family="Liberation Sans" font-size="1.905007" font-weight="bold" stroke-width=".264583" x=".916079" y="290.89252">1</tspan></text></g></g><g transform="matrix(.06614583 0 0 .06614583 -5.027095 -61.010418)"><path d="m76.46817 972.50342h51.19441v77.77988h-51.19441z" fill="#4d4d4d"/><path d="m78.611023 974.10779h46.908687v74.21371h-46.908687z" fill="url(#a)"/><path d="m78.611328 49.746094v51.285156c16.429399-20.561618 32.025322-27.545067 46.908202-28.796875v-22.488281z" fill="url(#b)" fill-rule="evenodd" transform="translate(0 924.36216)"/><path d="m90.869186 988.89819h22.891934v42.14551h-22.891934z" fill="url(#c)"/><path d="m92.81509 1029.6319c1.071428 1.4286 10.71429 15.3572 11.78571 13.5715 1.07143-1.7858 26.42857-25.3572 25-26.7858-1.42857-1.4285-33.928567-41.78567-33.928567-41.78567z" fill="url(#d)" fill-rule="evenodd" filter="url(#e)" transform="matrix(.69309305 0 0 .69309305 41.154082 321.73716)"/><path d="m92.999054 991.90948h18.632186v36.12292h-18.632186z" fill="#171717"/><path d="m94.788757 996.69385h15.052793v17.70915h-15.052793z" fill="url(#f)"/><path d="m94.827774-1035.9587h14.974746v21.9841h-14.974746z" fill="url(#g)" transform="scale(1 -1)"/></g></svg>

<?xml version="1.0" encoding="UTF-8" standalone="no"?>
<svg
   xmlns:dc="http://purl.org/dc/elements/1.1/"
   xmlns:cc="http://creativecommons.org/ns#"
   xmlns:rdf="http://www.w3.org/1999/02/22-rdf-syntax-ns#"
   xmlns:svg="http://www.w3.org/2000/svg"
   xmlns="http://www.w3.org/2000/svg"
   xmlns:xlink="http://www.w3.org/1999/xlink"
   xmlns:sodipodi="http://sodipodi.sourceforge.net/DTD/sodipodi-0.dtd"
   xmlns:inkscape="http://www.inkscape.org/namespaces/inkscape"
   height="32"
   viewBox="0 0 8.4666665 8.466667"
   width="32"
   version="1.1"
   id="svg4238"
   sodipodi:docname="bulletsandnumberingdialog.svg"
   inkscape:version="0.92.4 (unknown)"
   inkscape:export-filename="/home/rizmut/Dokumen/Rizmut/Github/libreoffice-style-karasa-jaga/build/next/cmd/32/ar/bulletsandnumberingdialog.png"
   inkscape:export-xdpi="96"
   inkscape:export-ydpi="96">
  <metadata
     id="metadata4244">
    <rdf:RDF>
      <cc:Work
         rdf:about="">
        <dc:format>image/svg+xml</dc:format>
        <dc:type
           rdf:resource="http://purl.org/dc/dcmitype/StillImage" />
        <dc:title></dc:title>
      </cc:Work>
    </rdf:RDF>
  </metadata>
  <defs
     id="defs4242">
    <linearGradient
       id="a-5"
       gradientUnits="userSpaceOnUse"
       x1="78.611023"
       x2="120.34367"
       y1="1011.2147"
       y2="1033.9094">
      <stop
         offset="0"
         stop-color="#fff"
         id="stop2708" />
      <stop
         offset="1"
         stop-color="#ccc"
         id="stop2710" />
    </linearGradient>
    <linearGradient
       id="b-3"
       gradientUnits="userSpaceOnUse"
       x1="100.83469"
       x2="116.42816"
       y1="35.992722"
       y2="78.92421">
      <stop
         offset="0"
         stop-color="#fff"
         stop-opacity=".683453"
         id="stop2713" />
      <stop
         offset="1"
         stop-color="#fff"
         stop-opacity="0"
         id="stop2715" />
    </linearGradient>
    <linearGradient
       id="c-5"
       gradientTransform="matrix(0.5963646,0,0,0.63697579,63.973311,385.80879)"
       gradientUnits="userSpaceOnUse"
       x1="65.456863"
       x2="65.985519"
       y1="947.38373"
       y2="1011.6694">
      <stop
         offset="0"
         stop-color="#363636"
         id="stop2718" />
      <stop
         offset="1"
         stop-color="#cdcdcd"
         id="stop2720" />
    </linearGradient>
    <linearGradient
       id="d"
       gradientUnits="userSpaceOnUse"
       x1="88.38102"
       x2="130.48599"
       y1="1008.9966"
       y2="1015.6953">
      <stop
         offset="0"
         stop-color="#5e5e5e"
         id="stop2723" />
      <stop
         offset="1"
         stop-color="#5e5e5e"
         stop-opacity="0"
         id="stop2725" />
    </linearGradient>
    <filter
       style="color-interpolation-filters:sRGB"
       id="e"
       height="1.12903"
       width="1.240695"
       x="-0.120348"
       y="-0.064515002">
      <feGaussianBlur
         stdDeviation="1.8475301"
         id="feGaussianBlur2728" />
    </filter>
    <linearGradient
       id="f"
       gradientUnits="userSpaceOnUse"
       x1="102.76828"
       x2="102.87263"
       y1="996.59485"
       y2="1014.126">
      <stop
         offset="0"
         stop-color="#979797"
         id="stop2731" />
      <stop
         offset=".148461"
         stop-color="#f6f6f6"
         id="stop2733" />
      <stop
         offset=".28399727"
         stop-color="#e2e2e2"
         id="stop2735" />
      <stop
         offset=".59572202"
         stop-color="#dedede"
         id="stop2737" />
      <stop
         offset=".73809379"
         stop-color="#f6f6f6"
         id="stop2739" />
      <stop
         offset="1"
         stop-color="#6b6b6b"
         id="stop2741" />
    </linearGradient>
    <linearGradient
       id="g"
       gradientUnits="userSpaceOnUse"
       x1="102.6542"
       x2="102.70658"
       y1="-1035.715"
       y2="-1014.9489">
      <stop
         offset="0"
         stop-color="#777"
         id="stop2744" />
      <stop
         offset=".07421063"
         stop-color="#a8a8a8"
         id="stop2746" />
      <stop
         offset=".22864534"
         stop-color="#cdcdcd"
         id="stop2748" />
      <stop
         offset=".34561315"
         stop-color="#f7f7f7"
         id="stop2750" />
      <stop
         offset="1"
         stop-color="#fff"
         id="stop2752" />
    </linearGradient>
    <linearGradient
       id="c-6"
       gradientUnits="userSpaceOnUse"
       x1="1.7220401"
       x2="1.7220401"
       xlink:href="#a"
       y1="290.70898"
       y2="288.50354" />
    <linearGradient
       id="linearGradient5548">
      <stop
         offset="0"
         stop-color="#06f"
         id="stop4909" />
      <stop
         offset="1"
         stop-color="#80b3ff"
         id="stop4911" />
    </linearGradient>
  </defs>
  <sodipodi:namedview
     pagecolor="#ffffff"
     bordercolor="#666666"
     borderopacity="1"
     objecttolerance="10"
     gridtolerance="10"
     guidetolerance="10"
     inkscape:pageopacity="0"
     inkscape:pageshadow="2"
     inkscape:window-width="1366"
     inkscape:window-height="706"
     id="namedview4240"
     showgrid="true"
     inkscape:zoom="14.75"
     inkscape:cx="21.337198"
     inkscape:cy="17.326989"
     inkscape:window-x="0"
     inkscape:window-y="0"
     inkscape:window-maximized="1"
     inkscape:current-layer="g5612">
    <inkscape:grid
       type="xygrid"
       id="grid5593" />
  </sodipodi:namedview>
  <linearGradient
     id="a">
    <stop
       offset="0"
       stop-color="#06f"
       id="stop4201" />
    <stop
       offset="1"
       stop-color="#80b3ff"
       id="stop4203" />
  </linearGradient>
  <linearGradient
     id="b"
     gradientTransform="matrix(0.95054585,0,0,0.95055165,-501.98201,-345.67176)"
     gradientUnits="userSpaceOnUse"
     x1="533.97046"
     x2="533.97046"
     xlink:href="#a"
     y1="62.640213"
     y2="69.536903" />
  <linearGradient
     id="c"
     gradientTransform="matrix(.95054585 0 0 .95055165 -501.98201 -332.7884)"
     gradientUnits="userSpaceOnUse"
     x1="533.97046"
     x2="533.97046"
     xlink:href="#a"
     y1="62.640213"
     y2="69.536903" />
  <g
     id="g5612"
     transform="matrix(-1,0,0,1,8.4666666,-8.203125e-7)">
    <g
       id="g4224"
       style="fill:#404040;fill-opacity:0.83921599">
      <g
         id="g4214"
         transform="matrix(-0.225,0,0,0.25,0.529167,-66.04791)">
        <path
           id="path4208"
           d="m -31.749998,273.71664 h 21.166666 v 1.05835 h -21.166666 z"
           inkscape:connector-curvature="0" />
        <path
           id="path4210"
           d="m -31.749998,269.48331 h 21.166666 v 1.05835 h -21.166666 z"
           inkscape:connector-curvature="0" />
        <path
           id="path4212"
           d="m -26.458332,277.94998 h 15.875 v 1.05835 h -15.875 z"
           inkscape:connector-curvature="0" />
      </g>
      <g
         id="g4222"
         transform="matrix(-0.225,0,0,0.25,0.529167,-62.343747)">
        <path
           id="path4216"
           d="m -31.749998,273.71664 h 21.166666 v 1.05835 h -21.166666 z"
           inkscape:connector-curvature="0" />
        <path
           id="path4218"
           d="m -31.749998,269.48331 h 21.166666 v 1.05835 h -21.166666 z"
           inkscape:connector-curvature="0" />
        <path
           id="path4220"
           d="m -26.458332,277.94998 h 15.875 v 1.05835 h -15.875 z"
           inkscape:connector-curvature="0" />
      </g>
    </g>
    <g
       id="g4236"
       transform="matrix(-0.25,0,0,0.25,2.5670946,-65.3503)">
      <ellipse
         id="ellipse4232"
         transform="scale(1,-1)"
         ry="1.425828"
         rx="1.425819"
         cy="-284.36118"
         cx="5.1341891"
         style="fill:none;stroke:url(#b);stroke-width:2.85165811;stroke-linecap:round;stroke-linejoin:round" />
      <ellipse
         id="ellipse4234"
         ry="1.425831"
         rx="1.425809"
         cy="284.36118"
         cx="5.1342311"
         style="fill:#bfd9ff" />
    </g>
    <g
       id="g4932"
       transform="matrix(-1.02,0,0,1.02,2.9110615,-293.913)"
       font-size="3.175"
       style="font-size:3.17499995px;font-family:'Bitstream Vera Sans'">
      <text
         id="text4926"
         y="290.89249"
         x="0.91606301"
         style="stroke:url(#c-6);stroke-width:0.529167;stroke-linejoin:round">
        <tspan
           id="tspan4924"
           y="290.89249"
           x="0.91606301"
           style="font-weight:bold;font-size:1.905007px;font-family:'Liberation Sans';stroke:url(#c-6);stroke-width:0.529167;stroke-linejoin:round">1</tspan>
      </text>
      <text
         id="text4930"
         y="290.89252"
         x="0.91607898"
         style="fill:#bfd9ff;stroke-width:0.26458299">
        <tspan
           id="tspan4928"
           y="290.89252"
           x="0.91607898"
           font-weight="bold"
           font-size="1.905007"
           style="font-weight:bold;font-size:1.905007px;font-family:'Liberation Sans';fill:#bfd9ff;stroke-width:0.26458299">1</tspan>
      </text>
    </g>
  </g>
  <g
     transform="matrix(0.06614583,0,0,0.06614583,-5.0270946,-61.010418)"
     id="g2873">
    <path
       style="fill:#4d4d4d"
       inkscape:connector-curvature="0"
       d="m 76.46817,972.50342 h 51.19441 v 77.77988 H 76.46817 Z"
       id="path2857" />
    <path
       style="fill:url(#a-5)"
       inkscape:connector-curvature="0"
       d="m 78.611023,974.10779 h 46.908687 v 74.21371 H 78.611023 Z"
       id="path2859" />
    <path
       style="fill:url(#b-3);fill-rule:evenodd"
       inkscape:connector-curvature="0"
       d="M 78.611328,49.746094 V 101.03125 C 95.040727,80.469632 110.63665,73.486183 125.51953,72.234375 V 49.746094 Z"
       transform="translate(0,924.36216)"
       id="path2861" />
    <path
       style="fill:url(#c-5)"
       inkscape:connector-curvature="0"
       d="m 90.869186,988.89819 h 22.891934 v 42.14551 H 90.869186 Z"
       id="path2863" />
    <path
       style="fill:url(#d);fill-rule:evenodd;filter:url(#e)"
       inkscape:connector-curvature="0"
       d="m 92.81509,1029.6319 c 1.071428,1.4286 10.71429,15.3572 11.78571,13.5715 1.07143,-1.7858 26.42857,-25.3572 25,-26.7858 -1.42857,-1.4285 -33.928567,-41.78567 -33.928567,-41.78567 z"
       transform="matrix(0.69309305,0,0,0.69309305,41.154082,321.73716)"
       id="path2865" />
    <path
       style="fill:#171717"
       inkscape:connector-curvature="0"
       d="m 92.999054,991.90948 h 18.632186 v 36.12292 H 92.999054 Z"
       id="path2867" />
    <path
       style="fill:url(#f)"
       inkscape:connector-curvature="0"
       d="M 94.788757,996.69385 H 109.84155 V 1014.403 H 94.788757 Z"
       id="path2869" />
    <path
       style="fill:url(#g)"
       inkscape:connector-curvature="0"
       d="m 94.827774,-1035.9587 h 14.974746 v 21.9841 H 94.827774 Z"
       transform="scale(1,-1)"
       id="path2871" />
  </g>
</svg>
